components/Common/Svg/svgs/mobileAppDesign.svg

<svg
  width="90"
  height="90"
  viewBox="0 0 90 90"
  fill="none"
  xmlns="http://www.w3.org/2000/svg"
>
  <circle
    opacity="0.5"
    cx="45"
    cy="45"
    r="45"
    fill="#FFE603"
  ></circle>
  <path
    d="M52.5 28.75H37.5C36.1193 28.75 35 29.8693 35 31.25V58.75C35 60.1307 36.1193 61.25 37.5 61.25H52.5C53.8807 61.25 55 60.1307 55 58.75V31.25C55 29.8693 53.8807 28.75 52.5 28.75Z"
    stroke="#161616"
    stroke-width="2"
    stroke-linecap="round"
    stroke-linejoin="round"
  ></path>
  <path
    d="M35 33.75H55"
    stroke="#161616"
    stroke-width="2"
    stroke-linecap="round"
    stroke-linejoin="round"
  ></path>
  <path
    d="M35 56.25H55"
    stroke="#161616"
    stroke-width="2"
    stroke-linecap="round"
    stroke-linejoin="round"
  ></path>
</svg>

<svg width="90" height="90" viewBox="0 0 90 90" fill="none" xmlns="http://www.w3.org/2000/svg"><circle opacity=".5" cx="45" cy="45" r="45" fill="#FFE603"/><path d="M52.5 28.75h-15a2.5 2.5 0 0 0-2.5 2.5v27.5a2.5 2.5 0 0 0 2.5 2.5h15a2.5 2.5 0 0 0 2.5-2.5v-27.5a2.5 2.5 0 0 0-2.5-2.5ZM35 33.75h20M35 56.25h20" stroke="#161616" stroke-width="2" stroke-linecap="round" stroke-linejoin="round"/></svg>
